style-guide/assets/wds-icons-eye-tiny.svg

<svg viewBox="0 0 12 12" xmlns="http://www.w3.org/2000/svg">
  <path d="M5.9 9a4.02 4.02 0 0 1-3.876-3A4.022 4.022 0 0 1 5.9 3a4.022 4.022 0 0 1 3.876 3A4.02 4.02 0 0 1 5.9 9m5.879-3.212A6.027 6.027 0 0 0 5.9 1 6.027 6.027 0 0 0 .021 5.788 1.179 1.179 0 0 0 0 6.011a.99.99 0 0 0 .021.202A6.026 6.026 0 0 0 5.9 11a6.026 6.026 0 0 0 5.879-4.787.99.99 0 0 0 .021-.202V5.99a.983.983 0 0 0-.021-.202M6.61 5.29c-.05-.04-.1-.09-.15-.12a.802.802 0 0 0-.18-.091.665.665 0 0 0-.18-.059c-.33-.07-.68.04-.91.27-.09.1-.16.21-.21.33A.991.991 0 0 0 4.9 6c0 .26.11.52.29.71.19.18.45.29.71.29.07 0 .13-.011.2-.021a.603.603 0 0 0 .18-.059c.06-.021.12-.05.18-.091l.15-.119c.18-.19.29-.45.29-.71 0-.13-.03-.261-.08-.38-.05-.12-.12-.23-.21-.33" fill-rule="evenodd"/>
</svg>

<svg xmlns="http://www.w3.org/2000/svg" xmlns:xlink="http://www.w3.org/1999/xlink" width="12" height="12" viewBox="0 0 12 12">
  <defs>
    <path id="eye-a" d="M5.9,9 C4.077,9 2.478,7.75 2.024,6 C2.478,4.251 4.077,3 5.9,3 C7.723,3 9.322,4.251 9.776,6 C9.322,7.75 7.723,9 5.9,9 M11.779,5.788 C11.205,3.014 8.733,1 5.9,1 C3.067,1 0.595,3.014 0.021,5.788 C0.007,5.854 0,5.942 0,6.011 C0,6.078 0.007,6.146 0.021,6.213 C0.595,8.987 3.067,11 5.9,11 C8.733,11 11.205,8.987 11.779,6.213 C11.793,6.146 11.8,6.078 11.8,6.011 L11.8,5.99 C11.8,5.923 11.793,5.854 11.779,5.788 M6.61,5.29 C6.56,5.25 6.51,5.2 6.46,5.17 C6.4,5.13 6.34,5.1 6.28,5.079 C6.22,5.05 6.16,5.03 6.1,5.02 C5.77,4.95 5.42,5.06 5.19,5.29 C5.1,5.39 5.03,5.5 4.98,5.62 C4.93,5.739 4.9,5.87 4.9,6 C4.9,6.26 5.01,6.52 5.19,6.71 C5.38,6.89 5.64,7 5.9,7 C5.97,7 6.03,6.989 6.1,6.979 C6.16,6.97 6.22,6.95 6.28,6.92 C6.34,6.899 6.4,6.87 6.46,6.829 C6.51,6.79 6.56,6.75 6.61,6.71 C6.79,6.52 6.9,6.26 6.9,6 C6.9,5.87 6.87,5.739 6.82,5.62 C6.77,5.5 6.7,5.39 6.61,5.29"/>
  </defs>
  <use fill-rule="evenodd" xlink:href="#eye-a"/>
</svg>
